X:5
%%scale 0.65
T:Ite in pace suspir fieri
C: B. Trombocino
M:C|
L:1/2
Q:1/1=90
K:Eb
V:1
c2 c2 | c2 G2 | A G A2 | G2 G2 | AA GF | F2 A2 | G4 | F2 z2 |
w:I-te~in  | pa-ce sus_pir fie-ri Ché d'af-fa-ni~hor mai son fo-ra
c3 B/A/| G2 B2 | A3/ G/ F2 | =E2 E2 | C2 E2 | D2 E>D | CE D2 | C2 C2 |
w:No va im-pre-sa~e no_ro~a-mo-re Mi fa for no_ri_ per-sie-ri
z c2 B/A/ | GB AG/F/ | =E F2 E | F2 F2 | c2 c2 | c2 G2 |
w:Mi__ fa_ far no__ri per-sie-ri I-te~in pa-ce.
AG A2 | G2 G2 | AA GF | F2 A2 | G2 G2 | z A>G F- | F =E/D/ EF | F4 |:
w:sus_pir fie-ri Chè d'af-fo-ni~hor mai son fo-ra son__ fo___ra
c2 c2 | c2 G2 | AG A2 | G2 G2 | AA GF | F2 A2 | G>F G2 | F2 F2 :|
w:Se d'a-mor già mi_con-dol-si Hor io be-ne di_ co~e__ lo-do
w:E l'an-ti-co la_oio sciol-si Per le__ gar-mi~a~un no_vo no-do
AA GF | F2 A2 | G4 | F2 F2 |:\
w:Chè si co_me chio-do~a chio-do
c3 B/A/ | G2 B2 | A>G F2 | =E2 E2 ::
w:L'a-mor_ no-vo~al vec_chio ce-de
w:E cus_sì con no_va fe-de
C2 E2 | D2 E>D | CE D2 | C2 C2 :| z c2 B/A/ | GB AG/F/| =E F2 E | F2 F2 ||
w:Pas-sco~el cor d'un_ al_tro~ar-do-re Mi fa___ far no__vi pen-sie-ri
w:No va~im-pre-sa e no_vo~a-mo-re
c2 c2 | c2 G2 | AG A2 | G2 G2 | AA GF | F2 A2 | G2 G2  | z A>G F- | F =E/D/ EF | F4 |]
w:I-te~in pa-ce sus_pir fie-ri Chè d'af-fa-ni~hor mai son fo-ra son___ fo___ra.
V:2
F A>G F- | F =E/D/ E2 | F=E F2 | =E/D/E/F/ E2- |=E F2 E | F A>G F- | F =E/D/ E2 | FC F2 |
E2 zD/C/ | B,2 B,2- | B, C2 =B, |  CG, C2 | G,2 C2 | =B,2 CE- | E/D/ C2 =B, | C2 C2 |
E2 zD/C/ | B,2 CB,/A,/ | G,F, G,2 | C2 C2 | F A>G F- | F =E/D/ E2 |
F=E F2 | =E/D/E/F/ E2- | =E F2 E | F A>G F- | F =E/D/ EF | F2 F,2 | G,2 G,2 | C4 ||:
F A>G F- | F =E/D/ E2 | F=E F2 | =E/D/E/F/ E2- | =E F2 E | F A>G F- | F =E/D/ E2 | FC F2 :|
zF2 =E | FA>G F- | F =E/D/ E2 | F2 F2 |: E2 zD/C/ | B,2  B,2- | B, C2 =B, | C2 C2 :|
G,2 C2 | =B,2 CE- | E/D/ C2 =B, | C2 C2 :| E2 zD/C/ | B,2 CB,/A,/ | G,F, G,2 | C2 C2 ||
F A>G F- | F=E/D/ E2 | F=E F2 | =E/D/E/F/ E2- | =EF2 E | FA>GF- | F=E/D/ EF | F2 F,2 | G,2 G,2 | [FC2]C [F2C2] |]
V:3
F,2F,2 | C,2 C,2 | F,C, F,2 | C,2 C,2 | F,2 C,2 | F,2 F,2 | C,2 C,2 | F,2 F,2|
C,2 zD, | E,>F, G,2 | F,>E, D,2 | C,2 C,2 | C,2 C,2 | G,2 C,2 | C,2 G,2 | C,G, C,2 |
C,2 zD, | E,G, F,2 | C,2 C,2 | F,2 F,2 |  F,2 F,2 | C,2 C,2 |
F,C,F,2 | C,2 C,2 | F,2 C,2 | F,2 F,2 | C,2 C,2 | F,2 _B,2 | C,2 C,2 | F,4 ||:
F,2 F,2 | C,2 C,2 | F,C, F,2 | C,2 C,2 | F,2 C,2 | F,2 F,2  | C,2 C,2 | F,2 F,2 :|
F,2 C,2 | F,2 F,2 | C,2 C,2 | F,2 F,2 |: C,2 zD, | E,/D,/E,/F,/ G,/F,/G,/E,/ | F,>E, D,2 | C,2 C,2 :|
C,2 C,2 | G,2 C,2 | C,2 G,2 | [C,2x] G, C,2 :| C,2 zD, | E,G, F,2 | C,2 C,2 | F,2 F,2 ||
F,2 F,2 | C,2 C,2 | F,C, F,2 | C,2 C,2 | F,2 C,2 | F,2 F,2 | C,2 C,2 | F,2 =D,2 | C,2 C,2 | F,2 F,2 |]
W:2- Come excede in esser bello
W:Un verde ad un secco legno.
W:Cussi questo amor novello
W:?el passato è assai piu degno
W:E consiste qui l'ingegno
W:Quando l'huom proposto muta
W:E la sorte sua refuta
W:Per trovarne una megliore.
W:Nova impresa ...
W:
W:3- Chi l'arebbe mai pennato
W:Che d'affanni io fusse uscito
W:E che avesse mai lasciato
W:La crudel che ho già servito.
W:Pur gli à ver ch'io son partito,
W:Perchè ognun ben pensar deve
W:Che un dispetto in tempo breve
W:Fa sdegnar un gentil core.
W:Nova impresa ...
W:
W:4- Io sto ben la dio mercede
W:E chi ha mal suo danno sia
W:E se servo con gran fede
W:A sta nova donna mia,
W:Servo a tal madonna pia
W:Che cognosce el servir mio
W:Ben mi tratta, e anch?r io
W:Ben la servo a tutte l'hore.
W:Nova impresa ...
W:
W:5- Io perdono a cui m'ha offeso
W:E gli absolvo ogni peccato,
W:E si son ad altra reso
W:M'haverà per excusato ;
W:Perché un servo maltrattato
W:Ma ligitima cagione
W:A lasciar el mal patrone
W:Per trovar meglior signore.
W:Nova impresa ...

%%footer $D   Galouvielle-MBe 2005 \nBourrée --
